IMG/main/funSMS.svg

<svg width="897" height="606" viewBox="0 0 897 606" fill="none" xmlns="http://www.w3.org/2000/svg">
<rect width="897" height="606" fill="#36BCF8"/>
<g clip-path="url(#clip0_1249_17)">
<path d="M229.065 395.547C231.985 395.547 234.351 397.915 234.351 400.837V406.948C234.351 409.87 231.985 412.238 229.065 412.238H193.004V432.128H224.841C227.761 432.128 230.127 434.496 230.127 437.418V442.573C230.127 445.495 227.761 447.863 224.841 447.863H193.004V477.242C193.004 480.164 190.637 482.532 187.717 482.532H178.742C175.822 482.532 173.456 480.164 173.456 477.242V400.828C173.456 397.906 175.822 395.538 178.742 395.538H229.065V395.547Z" fill="white"/>
<path d="M265.589 479.297C259.57 476.018 254.927 471.398 251.622 465.447C248.318 459.505 246.666 452.643 246.666 444.869V400.837C246.666 397.915 249.033 395.547 251.953 395.547H260.919C263.839 395.547 266.206 397.915 266.206 400.837V444.869C266.206 449.516 267.018 453.537 268.652 456.914C270.278 460.301 272.609 462.892 275.627 464.697C278.645 466.493 282.218 467.395 286.352 467.395C290.487 467.395 294.14 466.493 297.149 464.697C300.167 462.901 302.48 460.31 304.088 456.914C305.695 453.528 306.499 449.516 306.499 444.869V400.837C306.499 397.915 308.866 395.547 311.786 395.547H320.752C323.672 395.547 326.039 397.915 326.039 400.837V444.869C326.039 452.643 324.395 459.496 321.118 465.447C317.841 471.389 313.188 476.009 307.187 479.297C301.186 482.585 294.229 484.22 286.343 484.22C278.485 484.22 271.599 482.576 265.589 479.297Z" fill="white"/>
<path d="M406.474 454.296C406.546 454.394 406.653 454.448 406.769 454.448C406.974 454.448 407.135 454.287 407.135 454.082V401.087C407.135 398.165 409.501 395.797 412.422 395.797H421.593C424.513 395.797 426.88 398.165 426.88 401.087V477.242C426.88 480.164 424.513 482.531 421.593 482.531H407.448C405.742 482.531 404.143 481.709 403.152 480.324L362.68 423.854C362.582 423.72 362.43 423.639 362.269 423.639C361.983 423.639 361.76 423.872 361.76 424.149V477.233C361.76 480.155 359.394 482.523 356.473 482.523H347.302C344.382 482.523 342.015 480.155 342.015 477.233V401.078C342.015 398.156 344.382 395.788 347.302 395.788H361.653C363.359 395.788 364.948 396.61 365.948 397.986L406.474 454.296Z" fill="white"/>
<path d="M468.254 479.225C463.851 477.545 459.77 475.302 456.01 472.515C453.59 470.71 453.537 467.198 455.689 465.071L460.833 459.978C462.851 457.986 466.048 457.968 468.343 459.639C470.629 461.301 472.987 462.623 475.398 463.597C479.211 465.143 483.283 465.911 487.615 465.911C490.847 465.911 493.652 465.483 496.018 464.643C498.385 463.803 500.189 462.596 501.43 461.033C502.671 459.469 503.287 457.646 503.287 455.564C503.287 453.804 502.805 452.303 501.859 451.052C500.912 449.81 499.304 448.702 497.045 447.719C494.786 446.736 491.642 445.771 487.606 444.806L483.087 443.725C473.871 441.518 466.923 438.319 462.226 434.111C457.528 429.911 455.18 424.774 455.18 418.733C455.18 413.73 456.662 409.208 459.636 405.187C462.61 401.167 466.691 398.021 471.888 395.752C477.095 393.491 482.953 392.356 489.463 392.356C495.973 392.356 501.671 393.473 507.36 395.716C511.325 397.28 514.986 399.299 518.362 401.774C520.782 403.552 520.844 407.037 518.728 409.173L513.727 414.203C511.718 416.231 508.485 416.24 506.154 414.596C504.243 413.247 502.287 412.148 500.278 411.317C496.867 409.896 493.259 409.182 489.445 409.182C486.704 409.182 484.221 409.575 482.006 410.388C479.792 411.192 478.068 412.3 476.827 413.721C475.586 415.141 474.969 416.776 474.969 418.617C474.969 420.065 475.407 421.289 476.264 422.316C477.122 423.335 478.506 424.264 480.381 425.104C482.257 425.944 484.802 426.748 487.981 427.508L492.5 428.589C499.546 430.233 505.306 432.288 509.807 434.754C514.307 437.22 517.638 440.133 519.8 443.493C521.97 446.853 523.05 450.766 523.05 455.216C523.05 460.55 521.55 465.295 518.558 469.459C515.567 473.623 511.396 476.875 506.029 479.216C500.662 481.557 494.518 482.728 487.561 482.728C480.604 482.728 474.326 481.548 468.2 479.216H468.254V479.225Z" fill="white"/>
<path d="M558.343 394.18C560.432 394.18 562.317 395.404 563.174 397.316L588.197 453.304C588.259 453.456 588.411 453.554 588.581 453.554C588.75 453.554 588.893 453.456 588.965 453.304L613.988 397.316C614.836 395.413 616.729 394.18 618.819 394.18H634.768C637.689 394.18 640.055 396.548 640.055 399.469V475.624C640.055 478.546 637.689 480.914 634.768 480.914H626.115C623.195 480.914 620.828 478.546 620.828 475.624V427.598C620.828 427.437 620.694 427.303 620.533 427.303C620.417 427.303 620.31 427.374 620.257 427.481L598.145 477.76C597.297 479.681 595.404 480.923 593.305 480.923H583.892C581.794 480.923 579.892 479.681 579.052 477.76L556.941 427.481C556.896 427.374 556.78 427.303 556.664 427.303C556.494 427.303 556.36 427.437 556.36 427.606V475.633C556.36 478.555 553.994 480.923 551.073 480.923H542.42C539.5 480.923 537.133 478.555 537.133 475.633V399.478C537.133 396.556 539.5 394.189 542.42 394.189H558.343V394.18Z" fill="white"/>
<path d="M668.748 479.226C664.346 477.546 660.256 475.303 656.505 472.515C654.085 470.719 654.04 467.208 656.183 465.081L661.327 459.988C663.346 457.996 666.543 457.978 668.838 459.649C671.124 461.311 673.481 462.633 675.893 463.607C679.706 465.153 683.778 465.921 688.109 465.921C691.342 465.921 694.146 465.492 696.504 464.652C698.87 463.812 700.674 462.606 701.916 461.043C703.157 459.479 703.773 457.656 703.773 455.574C703.773 453.814 703.291 452.313 702.344 451.062C701.389 449.82 699.79 448.712 697.531 447.729C695.271 446.746 692.128 445.781 688.091 444.816L683.573 443.735C674.357 441.528 667.409 438.329 662.711 434.121C658.014 429.921 655.665 424.783 655.665 418.743C655.665 413.739 657.148 409.218 660.122 405.197C663.087 401.176 667.177 398.031 672.374 395.762C677.58 393.501 683.439 392.366 689.949 392.366C696.459 392.366 702.157 393.483 707.845 395.726C711.81 397.29 715.472 399.309 718.847 401.784C721.267 403.562 721.33 407.047 719.214 409.182L714.213 414.213C712.203 416.241 708.97 416.25 706.64 414.606C704.729 413.257 702.773 412.158 700.763 411.327C697.352 409.906 693.744 409.191 689.931 409.191C687.189 409.191 684.707 409.584 682.492 410.398C680.277 411.202 678.545 412.31 677.312 413.73C676.071 415.151 675.455 416.786 675.455 418.627C675.455 420.074 675.893 421.299 676.75 422.326C677.607 423.345 678.991 424.274 680.867 425.114C682.742 425.954 685.287 426.758 688.466 427.517L692.985 428.599C700.031 430.243 705.791 432.298 710.292 434.764C714.793 437.23 718.124 440.143 720.285 443.503C722.455 446.862 723.536 450.776 723.536 455.226C723.536 460.56 722.036 465.305 719.044 469.468C716.052 473.632 711.882 476.885 706.515 479.226C701.156 481.567 695.003 482.737 688.047 482.737C681.09 482.737 674.812 481.558 668.686 479.226H668.748Z" fill="white"/>
<path d="M428.817 364.863C487.999 364.863 535.981 316.854 535.981 257.64C535.981 198.426 488.008 150.417 428.817 150.417C369.627 150.417 321.654 198.426 321.654 257.64C321.654 316.854 369.636 364.863 428.817 364.863Z" fill="white"/>
<path d="M504.154 257.756L535.982 257.64V348.797C535.982 354.891 528.614 357.947 524.31 353.631L428.764 258.033L504.154 257.756Z" fill="white"/>
<path d="M494.679 318.32C494.679 310.85 488.633 304.801 481.167 304.801C473.701 304.801 467.656 310.85 467.656 318.32C467.656 325.79 473.701 331.839 481.167 331.839C488.633 331.839 494.679 325.79 494.679 318.32Z" fill="#36BCF8"/>
<path d="M374.477 317.318C376.406 315.406 379.504 315.433 381.541 317.229C393.945 328.13 410.198 334.724 427.996 334.724C447.553 334.724 465.262 326.754 478.024 313.869L484.998 320.794C470.46 335.466 450.277 344.562 427.987 344.562C407.465 344.562 388.729 336.851 374.539 324.171C372.53 322.349 372.548 319.23 374.477 317.318Z" fill="#36BCF8"/>
</g>
<defs>
<clipPath id="clip0_1249_17">
<rect width="551" height="466" fill="white" transform="translate(173 70)"/>
</clipPath>
</defs>
</svg>

<?xml version="1.0" encoding="UTF-8"?>
<svg id="_레이어_1" data-name="레이어_1" xmlns="http://www.w3.org/2000/svg" version="1.1" xmlns:xlink="http://www.w3.org/1999/xlink" viewBox="0 0 897 606">
  <!-- Generator: Adobe Illustrator 30.2.0, SVG Export Plug-In . SVG Version: 2.1.1 Build 26)  -->
  <defs>
    <style>
      .st0 {
        fill: #fff;
      }

      .st1 {
        fill: none;
      }

      .st2 {
        fill: #36bcf8;
      }

      .st3 {
        clip-path: url(#clippath);
      }
    </style>
    <clipPath id="clippath">
      <rect class="st1" x="173" y="70" width="551" height="466"/>
    </clipPath>
  </defs>
  <rect class="st2" width="897" height="606"/>
  <g class="st3">
    <g>
      <path class="st0" d="M229.07,395.55c2.92,0,5.29,2.37,5.29,5.29v6.11c0,2.92-2.37,5.29-5.29,5.29h-36.06v19.89h31.84c2.92,0,5.29,2.37,5.29,5.29v5.15c0,2.92-2.37,5.29-5.29,5.29h-31.84v29.38c0,2.92-2.37,5.29-5.29,5.29h-8.97c-2.92,0-5.29-2.37-5.29-5.29v-76.41c0-2.92,2.37-5.29,5.29-5.29h50.32Z"/>
      <path class="st0" d="M265.59,479.3c-6.02-3.28-10.66-7.9-13.97-13.85-3.3-5.94-4.96-12.8-4.96-20.58v-44.03c0-2.92,2.37-5.29,5.29-5.29h8.97c2.92,0,5.29,2.37,5.29,5.29v44.03c0,4.65.81,8.67,2.45,12.05,1.63,3.39,3.96,5.98,6.98,7.78,3.02,1.8,6.59,2.7,10.72,2.7s7.79-.9,10.8-2.7c3.02-1.8,5.33-4.39,6.94-7.78,1.61-3.39,2.41-7.4,2.41-12.05v-44.03c0-2.92,2.37-5.29,5.29-5.29h8.97c2.92,0,5.29,2.37,5.29,5.29v44.03c0,7.77-1.64,14.63-4.92,20.58-3.28,5.94-7.93,10.56-13.93,13.85-6,3.29-12.96,4.92-20.84,4.92s-14.74-1.64-20.75-4.92Z"/>
      <path class="st0" d="M406.47,454.3c.07.1.18.15.3.15.2,0,.37-.16.37-.37v-52.99c0-2.92,2.37-5.29,5.29-5.29h9.17c2.92,0,5.29,2.37,5.29,5.29v76.15c0,2.92-2.37,5.29-5.29,5.29h-14.14c-1.71,0-3.3-.82-4.3-2.21l-40.47-56.47c-.1-.13-.25-.21-.41-.21-.29,0-.51.23-.51.51v53.08c0,2.92-2.37,5.29-5.29,5.29h-9.17c-2.92,0-5.29-2.37-5.29-5.29v-76.15c0-2.92,2.37-5.29,5.29-5.29h14.35c1.71,0,3.29.82,4.29,2.2l40.53,56.31Z"/>
      <path class="st0" d="M468.25,479.23c-4.4-1.68-8.48-3.92-12.24-6.71-2.42-1.81-2.47-5.32-.32-7.44l5.14-5.09c2.02-1.99,5.21-2.01,7.51-.34,2.29,1.66,4.64,2.98,7.06,3.96,3.81,1.55,7.88,2.31,12.22,2.31,3.23,0,6.04-.43,8.4-1.27,2.37-.84,4.17-2.05,5.41-3.61,1.24-1.56,1.86-3.39,1.86-5.47,0-1.76-.48-3.26-1.43-4.51-.95-1.24-2.56-2.35-4.81-3.33-2.26-.98-5.4-1.95-9.44-2.91l-4.52-1.08c-9.22-2.21-16.16-5.41-20.86-9.61-4.7-4.2-7.05-9.34-7.05-15.38,0-5,1.48-9.52,4.46-13.55,2.97-4.02,7.06-7.17,12.25-9.43,5.21-2.26,11.07-3.4,17.58-3.4s12.21,1.12,17.9,3.36c3.97,1.56,7.63,3.58,11,6.06,2.42,1.78,2.48,5.26.37,7.4l-5,5.03c-2.01,2.03-5.24,2.04-7.57.39-1.91-1.35-3.87-2.45-5.88-3.28-3.41-1.42-7.02-2.13-10.83-2.13-2.74,0-5.22.39-7.44,1.21-2.21.8-3.94,1.91-5.18,3.33-1.24,1.42-1.86,3.05-1.86,4.9,0,1.45.44,2.67,1.3,3.7.86,1.02,2.24,1.95,4.12,2.79,1.88.84,4.42,1.64,7.6,2.4l4.52,1.08c7.05,1.64,12.81,3.7,17.31,6.17,4.5,2.47,7.83,5.38,9.99,8.74,2.17,3.36,3.25,7.27,3.25,11.72,0,5.33-1.5,10.08-4.49,14.24-2.99,4.16-7.16,7.42-12.53,9.76s-11.51,3.51-18.47,3.51-13.24-1.18-19.36-3.51h.05Z"/>
      <path class="st0" d="M558.34,394.18c2.09,0,3.97,1.22,4.83,3.14l25.02,55.99c.06.15.21.25.38.25s.31-.1.38-.25l25.02-55.99c.85-1.9,2.74-3.14,4.83-3.14h15.95c2.92,0,5.29,2.37,5.29,5.29v76.15c0,2.92-2.37,5.29-5.29,5.29h-8.65c-2.92,0-5.29-2.37-5.29-5.29v-48.03c0-.16-.13-.29-.29-.29-.12,0-.22.07-.28.18l-22.11,50.28c-.85,1.92-2.74,3.16-4.84,3.16h-9.41c-2.1,0-4-1.24-4.84-3.16l-22.11-50.28c-.04-.11-.16-.18-.28-.18-.17,0-.3.13-.3.3v48.03c0,2.92-2.37,5.29-5.29,5.29h-8.65c-2.92,0-5.29-2.37-5.29-5.29v-76.15c0-2.92,2.37-5.29,5.29-5.29h15.92Z"/>
      <path class="st0" d="M668.75,479.23c-4.4-1.68-8.49-3.92-12.24-6.71-2.42-1.8-2.47-5.31-.32-7.43l5.14-5.09c2.02-1.99,5.22-2.01,7.51-.34,2.29,1.66,4.64,2.98,7.05,3.96,3.81,1.55,7.89,2.31,12.22,2.31,3.23,0,6.04-.43,8.4-1.27,2.37-.84,4.17-2.05,5.41-3.61,1.24-1.56,1.86-3.39,1.86-5.47,0-1.76-.48-3.26-1.43-4.51-.96-1.24-2.55-2.35-4.81-3.33-2.26-.98-5.4-1.95-9.44-2.91l-4.52-1.08c-9.22-2.21-16.16-5.41-20.86-9.61-4.7-4.2-7.05-9.34-7.05-15.38,0-5,1.48-9.53,4.46-13.55,2.96-4.02,7.05-7.17,12.25-9.43,5.21-2.26,11.07-3.4,17.57-3.4s12.21,1.12,17.9,3.36c3.97,1.56,7.63,3.58,11,6.06,2.42,1.78,2.48,5.26.37,7.4l-5,5.03c-2.01,2.03-5.24,2.04-7.57.39-1.91-1.35-3.87-2.45-5.88-3.28-3.41-1.42-7.02-2.14-10.83-2.14-2.74,0-5.22.39-7.44,1.21-2.22.8-3.95,1.91-5.18,3.33-1.24,1.42-1.86,3.06-1.86,4.9,0,1.45.44,2.67,1.29,3.7.86,1.02,2.24,1.95,4.12,2.79,1.88.84,4.42,1.64,7.6,2.4l4.52,1.08c7.05,1.64,12.81,3.7,17.31,6.17,4.5,2.47,7.83,5.38,9.99,8.74,2.17,3.36,3.25,7.27,3.25,11.72,0,5.33-1.5,10.08-4.49,14.24-2.99,4.16-7.16,7.42-12.53,9.76-5.36,2.34-11.51,3.51-18.47,3.51s-13.23-1.18-19.36-3.51h.06Z"/>
      <path class="st2" d="M494.68,318.32c0-7.47-6.05-13.52-13.51-13.52s-13.51,6.05-13.51,13.52,6.04,13.52,13.51,13.52,13.51-6.05,13.51-13.52Z"/>
      <path class="st2" d="M374.48,317.32c1.93-1.91,5.03-1.88,7.06-.09,12.4,10.9,28.66,17.49,46.46,17.49,19.56,0,37.27-7.97,50.03-20.86l6.97,6.93c-14.54,14.67-34.72,23.77-57.01,23.77-20.52,0-39.26-7.71-53.45-20.39-2.01-1.82-1.99-4.94-.06-6.85Z"/>
    </g>
  </g>
  <path class="st0" d="M536.55,255.24c-1.35-58.64-50.36-105.63-109-104.6-28.81.5-54.86,12.38-73.82,31.34-19.4,19.39-31.39,46.17-31.39,75.76,0,1.77.06,3.53.14,5.29v91.61c0,4,4.84,6.01,7.67,3.18l23.95-23.95c19.35,19.16,45.97,31,75.36,31,27.87,0,53.25-10.64,72.31-28.08,1.88-1.72,1.91-4.67.12-6.47l-32.24-32.28c-1.45-1.45-3.67-1.64-5.43-.61-1.99,1.17-4.31,1.83-6.79,1.83-7.44,0-13.47-6.04-13.47-13.47,0-.09,0-.18.02-.27.07-3.61,1.55-6.88,3.93-9.26h0c2.43-2.44,5.8-3.95,9.52-3.95,6.18,0,11.37,4.16,12.96,9.83.56,1.98,2.3,3.38,4.35,3.38h54.7c2.09,0,3.91-1.45,4.38-3.48,1.99-8.59,2.95-17.56,2.75-26.79Z"/>
</svg>
